assets/images/quotation.svg

<svg width="20" height="20" viewBox="0 0 20 20" fill="none" xmlns="http://www.w3.org/2000/svg">
<g clip-path="url(#clip0_80_1423)">
<path d="M8.6112 1.83807L8.6112 5.24921C8.6112 5.71205 8.24418 6.08693 7.79167 6.08693C6.17696 6.08693 5.29853 7.7797 5.17661 11.1213L7.79167 11.1213C8.24412 11.1213 8.6112 11.4967 8.6112 11.959L8.6112 19.1618C8.6112 19.6244 8.24417 19.9993 7.79167 19.9993L0.819588 19.9993C0.367195 19.9993 3.287e-08 19.624 7.32818e-08 19.1618L7.02973e-07 11.9589C8.42999e-07 10.3572 0.158189 8.8874 0.468722 7.5893C0.787734 6.25858 1.27743 5.09518 1.92387 4.13108C2.58871 3.14033 3.42107 2.36287 4.39638 1.82144C5.37909 1.27654 6.52141 0.999999 7.79201 0.999999C8.24412 1.00035 8.6112 1.37558 8.6112 1.83807ZM19.1806 6.08722C19.6331 6.08722 20 5.71205 20 5.24985L20 1.83801C20 1.37558 19.6331 1.00064 19.1806 1.00064C17.9107 1.00064 16.7678 1.27725 15.7857 1.82208C14.8099 2.36346 13.9776 3.14027 13.3128 4.13172C12.666 5.09582 12.1764 6.25928 11.8574 7.59065C11.5466 8.88875 11.3888 10.3586 11.3888 11.9596L11.3888 19.1625C11.3888 19.6251 11.7561 20 12.2083 20L19.1806 20C19.6331 20 20 19.6248 20 19.1625L20 11.9596C20 11.497 19.6331 11.1219 19.1806 11.1219L16.6023 11.1219C16.7227 7.78005 17.5885 6.08722 19.1806 6.08722Z" fill="#2CA656"/>
</g>
<defs>
<clipPath id="clip0_80_1423">
<rect width="20" height="20" fill="white" transform="translate(20 20) rotate(-180)"/>
</clipPath>
</defs>
</svg>

<svg width="20" height="20" fill="none" xmlns="http://www.w3.org/2000/svg"><g clip-path="url(#a)"><path d="M8.611 1.838V5.25a.829.829 0 0 1-.82.838c-1.614 0-2.492 1.693-2.614 5.034h2.615a.83.83 0 0 1 .82.838v7.203a.829.829 0 0 1-.82.837H.82a.83.83 0 0 1-.82-.837v-7.203c0-1.602.158-3.072.469-4.37.319-1.33.808-2.494 1.455-3.458.665-.99 1.497-1.768 2.472-2.31C5.38 1.277 6.521 1 7.792 1a.83.83 0 0 1 .82.838Zm10.57 4.25c.452 0 .819-.376.819-.838V1.838a.829.829 0 0 0-.82-.837c-1.27 0-2.412.276-3.394.821-.976.541-1.808 1.318-2.473 2.31-.647.964-1.137 2.127-1.456 3.459-.31 1.298-.468 2.768-.468 4.369v7.203c0 .462.367.837.82.837h6.972c.452 0 .819-.375.819-.837V11.96a.829.829 0 0 0-.82-.838h-2.578c.12-3.342.986-5.035 2.579-5.035Z" fill="#2CA656"/></g><defs><clipPath id="a"><path fill="#fff" transform="rotate(-180 10 10)" d="M0 0h20v20H0z"/></clipPath></defs></svg>
